X: 7686
T: Coleraine, The
R: jig
M: 6/8
K: Aminor
|:~E3 ABc|Bee ~e2d|~c3 ABc|BGE ~E2D|
EAA ABc|Bee fed|cBA ^GAB|1 ABA A2D:|2 ABA GAB||
|:c2c cBA|Bgg g2^g|aed cBA|^GAB E^FG|
ABA ~B3|cde fed|cBA ^GAB|1 ABA GAB:|2 ABA A2D||

